X: 19402
T: Jackie Coleman's
R: reel
M: 4/4
K: Dmajor
|:A ~F3 EDDE|F2 AF BFAF|E2 BE dEBE|ABde fedB|
A ~F3 EDDE|F2 AF BFAF|E2 BE dEBE|1 ABde fedB:|2 ABde fdde||
|:fddc dfag|fddc dfaf|e ~A3 eAfA|e ~A3 B/c/deg|
fddc dfag|fddc dfaf|g2 gf gbag|1 faeg fdde:|2 faeg fd d2||

